icons/circle-arrow-right.svg

<svg width="24" height="24" viewBox="0 0 24 24" fill="none" xmlns="http://www.w3.org/2000/svg">
<path fill-rule="evenodd" clip-rule="evenodd" d="M20 12C20 7.58172 16.4183 4 12 4C7.58172 4 4 7.58172 4 12C4 16.4183 7.58172 20 12 20C16.4183 20 20 16.4183 20 12ZM12 2C17.5228 2 22 6.47715 22 12C22 17.5228 17.5228 22 12 22C6.47715 22 2 17.5228 2 12C2 6.47715 6.47715 2 12 2ZM13.7071 8.29289L16.7071 11.2929C17.0976 11.6834 17.0976 12.3166 16.7071 12.7071L13.7071 15.7071C13.3166 16.0976 12.6834 16.0976 12.2929 15.7071C11.9024 15.3166 11.9024 14.6834 12.2929 14.2929L13.5858 13L8 13C7.44771 13 7 12.5523 7 12C7 11.4477 7.44771 11 8 11L13.5858 11L12.2929 9.70711C11.9024 9.31658 11.9024 8.68342 12.2929 8.29289C12.6834 7.90237 13.3166 7.90237 13.7071 8.29289Z" fill="black"/>
</svg>

<svg
  width="24"
  height="24"
  viewBox="0 0 24 24"
  xmlns="http://www.w3.org/2000/svg"
>
  <path
    fill-rule="evenodd"
    clip-rule="evenodd"
    d="M20 12a8 8 0 1 0-16 0 8 8 0 0 0 16 0zM12 2c5.523 0 10 4.477 10 10s-4.477 10-10 10S2 17.523 2 12 6.477 2 12 2zm1.707 6.293l3 3a1 1 0 0 1 0 1.414l-3 3a1 1 0 0 1-1.414-1.414L13.586 13H8a1 1 0 1 1 0-2h5.586l-1.293-1.293a1 1 0 0 1 1.414-1.414z"
  />
</svg>
